X:1
T: The Cosmopolite
C:
R:Reel
Q: 232
K:D
M:4/4
L:1/8
|:((3ABc)|d2 fd c2 ec|dc dB A2 FA|G2 EG F2 DF|ED CE D3A,|A,B, CD EA2A,|A,B, CD EA2A,|A,B, CD EF GA|BA GF E2((3ABc)|
d2 fd c2 ec|dc dB A2 FA|G2 EG F2 DF|ED CE D3A,|A,B, CD EA2A,|A,B, CD EA2A,|A,B, CD EF GA|B2 c2 d2 cd|
ec Ac ec Ac|ea ga fe cd|ec Ac ec Ac|BG EG BG EG|ec Ac ec Ac|ea ga fe cd|ec Ac ec Ac|BA GB A2((3ABc)|
d2 fd c2 ec|dc dB A2 FA|G2 EG F2 DF|ED CE D3A,|A,B, CD EA2A,|A,B, CD EA2A,|A,B, CD EF GA|B2 c2 d2:|
